public/elk-black.svg

<svg height="180" viewBox="0 0 180 180" width="180" xmlns="http://www.w3.org/2000/svg"><path d="m94.807 34.739c-6.356.738-9.735-.96-11.769 5.092 0 0 6.829 10.296 25.027 10.038-1.018 4.207-.545 7.307-.545 11.034 0 12.4-9.807 23.213-31.42 23.213-10.97 0-24.3 1.993-34.47 7.566-7.229 3.948-12.884 9.669-15.387 17.603l2.837 4.023 5.43.073v22.77l-6.625 10.445 1.904 30.261h6.283l.545-24.357c3.124-1.845 10.279-6.642 16.381-14.023 8.283-9.927 14.639-24.357 7.157-42.219l5.593-2.399c6.139 14.651 3.996 27.347-1.38 37.569 10.279-.333 19.106-.996 26.588-2.251l-1.707-20.777 6.03-.517 5.739 68.974h6.248l1.053-44.913c4.977-2.14 16.309-10 21.612-37.31.654-3.321 1.018-6.126 1.199-8.525.835-6.089 1.308-12.953 1.453-20.777l-8.899-2.842h27.351l2.652-6.089c-2.579.111-5.667-1.254-5.667-1.254l.618-2.953h5.739l-31.057-16.349c-3.45 1.329-7.082 3.064-9.626 5.167-2.034-1.476-9.08-6.089-18.887-6.273z"/><path d="m118.925 133.569c3.269-3.543 7.047-8.526 10.571-15.205.108 2.767.29 4.428.435 5.277l16.091 13.802-12.132 23.914-5.448-2.583 7.591-17.529zm-58.408 4.059c4.375-.069 8.747-.242 13.113-.517-5.267 7.861-11.66 13.507-14.311 15.721v23.988h-6.212l-3.161-27.678c3.778-3.174 7.411-7.27 10.571-11.514zm-18.452-133.132 5.849-1.661c2.833 10.26 6.356 15.868 10.788 18.71 3.996 2.425 9.407 2.491 15.146 2.178-1.671-.554-3.233-1.329-4.686-2.399-3.232-2.399-5.993-6.385-8.064-13.618l5.812-1.735c1.563 5.463 3.379 8.599 5.812 10.408 2.434 1.771 5.376 2.214 8.863 2.583 6.538.738 14.711 1.033 24.918 5.83 1.38.517 2.797 1.181 4.177 1.92-.185-.392-.391-.775-.617-1.145-1.744-2.767-5.158-5.683-11.478-8.044l2.034-5.757c10.279 3.764 14.347 9.115 15.981 13.359 1.89 4.834.727 8.617.727 8.617-1.453.48-2.906 1.144-4.576 1.66-3.161-2.177-6.139-3.819-8.972-5.111-10.461-3.948-20.705-1.254-29.785-.405-6.83.627-13.077.332-18.489-3.137-5.34-3.396-10.025-9.891-13.44-22.253z"/><path d="m82.021 14.386c-1.199-2.731-1.925-6.089-1.598-10.223l6.03.443c-.364 5.019 1.38 8.414 3.341 10.628-2.542-.442-4.976-.494-7.773-.848zm38.139-.628 3.959-4.613c10.28 9.079 3.887 22.068 3.887 22.068l-5.63-.626c-.181-2.967-.545-8.482-3.16-11.588 1.707.874 3.16 1.838 4.759 3.284 0-2.694-.836-5.868-3.815-8.525z"/></svg>

<?xml version="1.0" encoding="UTF-8"?>
<!DOCTYPE svg PUBLIC "-//W3C//DTD SVG 1.1//EN" "http://www.w3.org/Graphics/SVG/1.1/DTD/svg11.dtd">
<svg version="1.1" xmlns="http://www.w3.org/2000/svg" xmlns:xlink="http://www.w3.org/1999/xlink" x="0" y="0" width="180" height="180" viewBox="0, 0, 180, 180">
  <g id="Calque_1">
    <path d="M94.807,34.739 C88.451,35.477 85.072,33.779 83.038,39.831 C83.038,39.831 89.867,50.127 108.065,49.869 C107.047,54.076 107.52,57.176 107.52,60.903 C107.52,73.303 97.713,84.116 76.1,84.116 C65.13,84.116 51.8,86.109 41.63,91.682 C34.401,95.63 28.746,101.351 26.243,109.285 L29.08,113.308 L34.51,113.381 L34.51,136.151 L27.885,146.596 L29.789,176.857 L36.072,176.857 L36.617,152.5 C39.741,150.655 46.896,145.858 52.998,138.477 C61.281,128.55 67.637,114.12 60.155,96.258 L65.748,93.859 C71.887,108.51 69.744,121.206 64.368,131.428 C74.647,131.095 83.474,130.432 90.956,129.177 L89.249,108.4 L95.279,107.883 L101.018,176.857 L107.266,176.857 L108.319,131.944 C113.296,129.804 124.628,121.944 129.931,94.634 C130.585,91.313 130.949,88.508 131.13,86.109 C131.965,80.02 132.438,73.156 132.583,65.332 L123.684,62.49 L151.035,62.49 L153.687,56.401 C151.108,56.512 148.02,55.147 148.02,55.147 L148.638,52.194 L154.377,52.194 L123.32,35.845 C119.87,37.174 116.238,38.909 113.694,41.012 C111.66,39.536 104.614,34.923 94.807,34.739 z" fill="#000000"/>
    <path d="M118.925,133.569 C122.194,130.026 125.972,125.043 129.496,118.364 C129.604,121.131 129.786,122.792 129.931,123.641 L146.022,137.443 L133.89,161.357 L128.442,158.774 L136.033,141.245 L118.925,133.569 z M60.517,137.628 C64.892,137.559 69.264,137.386 73.63,137.111 C68.363,144.972 61.97,150.618 59.319,152.832 L59.319,176.82 L53.107,176.82 L49.946,149.142 C53.724,145.968 57.357,141.872 60.517,137.628 z M42.065,4.496 L47.914,2.835 C50.747,13.095 54.27,18.703 58.702,21.545 C62.698,23.97 68.109,24.036 73.848,23.723 C72.177,23.169 70.615,22.394 69.162,21.324 C65.93,18.925 63.169,14.939 61.098,7.706 L66.91,5.971 C68.473,11.434 70.289,14.57 72.722,16.379 C75.156,18.15 78.098,18.593 81.585,18.962 C88.123,19.7 96.296,19.995 106.503,24.792 C107.883,25.309 109.3,25.973 110.68,26.712 C110.495,26.32 110.289,25.937 110.063,25.567 C108.319,22.8 104.905,19.884 98.585,17.523 L100.619,11.766 C110.898,15.53 114.966,20.881 116.6,25.125 C118.49,29.959 117.327,33.742 117.327,33.742 C115.874,34.222 114.421,34.886 112.751,35.402 C109.59,33.225 106.612,31.583 103.779,30.291 C93.318,26.343 83.074,29.037 73.994,29.886 C67.164,30.513 60.917,30.218 55.505,26.749 C50.165,23.353 45.48,16.858 42.065,4.496 z" fill="#000000"/>
    <path d="M82.021,14.386 C80.822,11.655 80.096,8.297 80.423,4.163 L86.453,4.606 C86.089,9.625 87.833,13.02 89.794,15.234 C87.252,14.792 84.818,14.74 82.021,14.386 z M120.16,13.758 L124.119,9.145 C134.399,18.224 128.006,31.213 128.006,31.213 L122.376,30.587 C122.195,27.62 121.831,22.105 119.216,18.999 C120.923,19.873 122.376,20.837 123.975,22.283 C123.975,19.589 123.139,16.415 120.16,13.758 z" fill="#000000"/>
  </g>
</svg>
